X: 32226
T: Phone Call, The
R: reel
M: 4/4
K: Bminor
|:Bdef dcBA|Bcde f2 (3gfe|dfad' c'bag|fff=f ^f2 ec|
Bdef dcBA|Bcde f2 (3gfe|dfad' c'bag|1 f2 (3edc B2 A2:|2 f2 (3edc B2 (3abc'||
|:d'afa fafa|bfdf dfdf|fefg fefg|fdB=F ^F2Bf|
d'afa fafa|bfdf dfdf|fefg fefg|fdBF F2Bf:|
|:gBfB gBfB|FBdf edcB|gcfc gcfc|Gceg fedc|
gBfB gBfB|FBdf edcB|AGFE DEFG|1 ABcd efgf:|2 B,D FB b4||

